papirus/32x32/apps/tomato.svg

<?xml version="1.0" encoding="UTF-8" standalone="no"?>
<!-- Created with Inkscape (http://www.inkscape.org/) -->

<svg
   xmlns:dc="http://purl.org/dc/elements/1.1/"
   xmlns:cc="http://creativecommons.org/ns#"
   xmlns:rdf="http://www.w3.org/1999/02/22-rdf-syntax-ns#"
   xmlns:svg="http://www.w3.org/2000/svg"
   xmlns="http://www.w3.org/2000/svg"
   xmlns:sodipodi="http://sodipodi.sourceforge.net/DTD/sodipodi-0.dtd"
   xmlns:inkscape="http://www.inkscape.org/namespaces/inkscape"
   id="svg2817"
   height="32"
   width="32"
   version="1.0"
   inkscape:version="0.91 r"
   sodipodi:docname="tomato.svg">
  <sodipodi:namedview
     pagecolor="#ffffff"
     bordercolor="#666666"
     borderopacity="1"
     objecttolerance="10"
     gridtolerance="10"
     guidetolerance="10"
     inkscape:pageopacity="0"
     inkscape:pageshadow="2"
     inkscape:window-width="1535"
     inkscape:window-height="876"
     id="namedview31"
     showgrid="false"
     inkscape:zoom="1"
     inkscape:cx="24"
     inkscape:cy="24"
     inkscape:window-x="65"
     inkscape:window-y="24"
     inkscape:window-maximized="1"
     inkscape:current-layer="svg2817" />
  <metadata
     id="metadata57">
    <rdf:RDF>
      <cc:Work
         rdf:about="">
        <dc:format>image/svg+xml</dc:format>
        <dc:type
           rdf:resource="http://purl.org/dc/dcmitype/StillImage" />
        <dc:title></dc:title>
      </cc:Work>
    </rdf:RDF>
  </metadata>
  <defs
     id="defs2819">
    <clipPath
       id="clipPath4186"
       clipPathUnits="userSpaceOnUse">
      <circle
         id="path4188"
         style="color:#000000;fill:url(#linearGradient4190)"
         cx="286"
         cy="26"
         r="10" />
    </clipPath>
  </defs>
  <circle
     id="path4230"
     style="color:#000000;fill:#e74c3c"
     cx="16"
     cy="16.950001"
     r="14" />
  <path
     id="path4274"
     d="m 13.25585,2.0009062 c -0.09394,0.00385 -0.189542,0.019853 -0.284177,0.049257 -0.504721,0.1568307 -0.78473,0.6321685 -0.627808,1.0656891 l 0.393809,1.0880658 C 7.0298606,4.7375455 4,10.577417 4,10.577417 c 0,0 1.9098968,0.348298 6.516436,-2.1190268 1.279924,-0.685544 2.017773,-1.422446 2.438927,-2.0892384 -0.08704,0.6878057 -0.07428,1.5696097 0.128913,2.6943004 C 13.59459,11.888104 15.726766,14 15.726766,14 c 0,0 2.580679,-4.1554705 -0.186629,-8.2284996 C 19.621673,8.4600455 26,7.2915675 26,7.2915675 c 0,0 -2.857305,-2.6286212 -5.890827,-3.2838154 -2.263646,-0.4889116 -4.347523,-0.1695379 -5.430998,0.078611 -6.37e-4,-0.080285 -0.01444,-0.1615092 -0.04331,-0.2412112 L 14.16593,2.549587 C 14.038434,2.1973513 13.662894,1.9843107 13.255825,2.0009038 Z"
     style="display:inline;opacity:0.2;fill:#000000;fill-opacity:1;fill-rule:evenodd;stroke:none;stroke-width:2;stroke-linecap:butt;stroke-linejoin:miter;stroke-miterlimit:4;stroke-dasharray:none;stroke-opacity:0.89019608"
     inkscape:connector-curvature="0" />
  <circle
     id="path4240"
     style="color:#000000;opacity:0;stroke-width:0.45455"
     clip-path="url(#clipPath4186)"
     cx="286"
     transform="matrix(1.4,0,0,1.4,-384.4,-18.4)"
     cy="26"
     r="10" />
  <circle
     id="path4242"
     style="color:#000000;opacity:0;stroke-width:0.90908998"
     clip-path="url(#clipPath4186)"
     cx="286"
     transform="matrix(1.4,0,0,1.4,-384.4,-18.4)"
     cy="26"
     r="10" />
  <path
     inkscape:connector-curvature="0"
     style="display:inline;fill:#a6ef4d;fill-opacity:1;fill-rule:evenodd;stroke:none;stroke-width:2;stroke-linecap:butt;stroke-linejoin:miter;stroke-miterlimit:4;stroke-dasharray:none;stroke-opacity:0.89019608"
     d="m 13.25585,1.0009062 c -0.09394,0.00385 -0.189542,0.019853 -0.284177,0.049257 -0.504721,0.1568307 -0.78473,0.6321685 -0.627808,1.0656891 l 0.393809,1.0880658 C 7.0298606,3.7375455 4,9.5774172 4,9.5774172 c 0,0 1.9098968,0.348298 6.516436,-2.119027 1.279924,-0.685544 2.017773,-1.422446 2.438927,-2.0892384 -0.08704,0.6878057 -0.07428,1.5696097 0.128913,2.6943004 C 13.59459,10.888104 15.726766,13 15.726766,13 c 0,0 2.580679,-4.1554705 -0.186629,-8.2284996 C 19.621673,7.4600455 26,6.2915675 26,6.2915675 c 0,0 -2.857305,-2.6286212 -5.890827,-3.2838154 -2.263646,-0.4889116 -4.347523,-0.1695379 -5.430998,0.078611 -6.37e-4,-0.080285 -0.01444,-0.1615092 -0.04331,-0.2412112 L 14.16593,1.549587 C 14.038434,1.1973513 13.662894,0.98431071 13.255825,1.0009038 Z"
     id="path4216-3" />
  <path
     inkscape:connector-curvature="0"
     style="color:#000000;opacity:0.3;fill:#000000;fill-opacity:1"
     d="M 29.980469,16.392578 A 14,14 0 0 1 16,30 14,14 0 0 1 2.0195312,16.556641 14,14 0 0 0 2,16.949219 a 14,14 0 0 0 14,14 14,14 0 0 0 14,-14 14,14 0 0 0 -0.01953,-0.556641 z"
     id="circle4264" />
  <path
     inkscape:connector-curvature="0"
     style="display:inline;opacity:0.1;fill:#ffffff;fill-opacity:1;fill-rule:evenodd;stroke:none;stroke-width:2;stroke-linecap:butt;stroke-linejoin:miter;stroke-miterlimit:4;stroke-dasharray:none;stroke-opacity:0.89019608"
     d="m 13.255859,1 c -0.09394,0.00385 -0.190521,0.021377 -0.285156,0.050781 -0.504721,0.1568307 -0.783875,0.6309326 -0.626953,1.0644532 l 0.113281,0.3105468 c 0.116817,-0.1660099 0.287263,-0.3046485 0.513672,-0.375 C 13.065338,2.0213773 13.161919,2.00385 13.255859,2 13.662928,1.983407 14.03852,2.1965924 14.166016,2.5488281 l 0.46875,1.296875 c 0.02887,0.079702 0.04233,0.1599494 0.04297,0.2402344 1.083475,-0.2481489 3.167995,-0.5670366 5.431641,-0.078125 1.935027,0.4179361 3.710891,1.5963573 4.806641,2.4257813 C 25.589683,6.3655007 26,6.2910156 26,6.2910156 c 0,0 -2.857103,-2.6280089 -5.890625,-3.2832031 -2.263646,-0.4889116 -4.348166,-0.1700239 -5.431641,0.078125 -6.37e-4,-0.080285 -0.0141,-0.1605324 -0.04297,-0.2402344 l -0.46875,-1.296875 C 14.03852,1.1965924 13.662928,0.98340691 13.255859,1 Z M 12.394531,3.2558594 C 6.913312,3.9886597 4,9.578125 4,9.578125 c 0,0 0.2165689,0.026413 0.6230469,-0.00391 1.1504569,-1.6912065 3.895889,-4.9766205 8.1152341,-5.37109 l -0.34375,-0.9472656 z m 3.146485,2.515625 C 16.378168,7.003637 16.721018,8.2411775 16.798828,9.3710938 16.85978,8.4104204 16.751294,7.3330446 16.306641,6.21875 16.04416,6.0829545 15.788537,5.9345291 15.541016,5.7714844 Z m -2.585938,0.5976562 c -0.01247,0.019738 -0.03189,0.040689 -0.04492,0.060547 0.0025,0.099971 0.0093,0.204834 0.01563,0.3105469 0.0086,-0.1265803 0.01469,-0.255671 0.0293,-0.3710938 z"
     id="path4269" />
</svg>

<?xml version="1.0" encoding="UTF-8" standalone="no"?>
<svg id="svg2817" xmlns:rdf="http://www.w3.org/1999/02/22-rdf-syntax-ns#" xmlns="http://www.w3.org/2000/svg" height="32" width="32" version="1.0" xmlns:cc="http://creativecommons.org/ns#" xmlns:dc="http://purl.org/dc/elements/1.1/">
 <metadata id="metadata57">
  <rdf:RDF>
   <cc:Work rdf:about="">
    <dc:format>image/svg+xml</dc:format>
    <dc:type rdf:resource="http://purl.org/dc/dcmitype/StillImage"/>
    <dc:title/>
   </cc:Work>
  </rdf:RDF>
 </metadata>
 <defs id="defs2819">
  <clipPath id="clipPath4186" clipPathUnits="userSpaceOnUse">
   <circle id="path4188" style="color:#000000" cy="26" cx="286" r="10" fill="url(#linearGradient4190)"/>
  </clipPath>
 </defs>
 <circle id="path4230" style="color:#000000" cy="16.95" cx="16" r="14" fill="#e74c3c"/>
 <path id="path4274" opacity=".2" d="m13.256 2.0009c-0.09394 0.00385-0.18954 0.019853-0.28418 0.049257-0.50472 0.15683-0.78473 0.63217-0.62781 1.0657l0.39381 1.0881c-5.7081 0.5335-8.738 6.373-8.738 6.373s1.9099 0.3483 6.5164-2.119c1.2799-0.68554 2.0178-1.4224 2.4389-2.0892-0.08704 0.68781-0.07428 1.5696 0.12891 2.6943 0.511 2.8249 2.643 4.9369 2.643 4.9369s2.5807-4.1555-0.18663-8.2285c4.082 2.6885 10.46 1.5201 10.46 1.5201s-2.8573-2.6286-5.8908-3.2838c-2.2636-0.48891-4.3475-0.16954-5.431 0.078611-0.000637-0.080285-0.01444-0.16151-0.04331-0.24121l-0.469-1.2956c-0.128-0.3522-0.503-0.5653-0.91-0.5487z" fill-rule="evenodd"/>
 <circle id="path4240" opacity="0" style="color:#000000" stroke-width=".45455" clip-path="url(#clipPath4186)" transform="matrix(1.4,0,0,1.4,-384.4,-18.4)" cy="26" cx="286" r="10"/>
 <circle id="path4242" opacity="0" style="color:#000000" stroke-width=".90909" clip-path="url(#clipPath4186)" transform="matrix(1.4,0,0,1.4,-384.4,-18.4)" cy="26" cx="286" r="10"/>
 <path id="path4216-3" d="m13.256 1.0009c-0.09394 0.00385-0.18954 0.019853-0.28418 0.049257-0.50472 0.15683-0.78473 0.63217-0.62781 1.0657l0.39381 1.0881c-5.7081 0.5335-8.738 6.3734-8.738 6.3734s1.9099 0.3483 6.5164-2.119c1.2799-0.68554 2.0178-1.4224 2.4389-2.0892-0.08704 0.68781-0.07428 1.5696 0.12891 2.6943 0.511 2.8245 2.643 4.9365 2.643 4.9365s2.5807-4.1555-0.18663-8.2285c4.082 2.6885 10.46 1.5201 10.46 1.5201s-2.8573-2.6286-5.8908-3.2838c-2.2636-0.48891-4.3475-0.16954-5.431 0.078611-0.000637-0.080285-0.01444-0.16151-0.04331-0.24121l-0.469-1.2956c-0.128-0.3522-0.503-0.56529-0.91-0.5487z" fill-rule="evenodd" fill="#a6ef4d"/>
 <path id="circle4264" opacity=".2" style="color:#000000" d="m29.98 17.443a14 14 0 0 1 -13.98 13.608 14 14 0 0 1 -13.98 -13.444 14 14 0 0 0 -0.02 0.393 14 14 0 0 0 14 14 14 14 0 0 0 14 -14 14 14 0 0 0 -0.02 -0.557z"/>
 <path id="path4269" opacity=".1" d="m13.256 1c-0.09394 0.00385-0.19052 0.021377-0.28516 0.050781-0.50472 0.15683-0.78388 0.63093-0.62695 1.0645l0.11328 0.31055c0.11682-0.16601 0.28726-0.30465 0.51367-0.375 0.094-0.0294 0.191-0.047 0.285-0.0508 0.407-0.0166 0.783 0.1966 0.91 0.5488l0.46875 1.2969c0.02887 0.079702 0.04233 0.15995 0.04297 0.24023 1.0835-0.24815 3.168-0.56704 5.4316-0.078125 1.935 0.41794 3.7109 1.5964 4.8066 2.4258 0.674-0.0681 1.084-0.1426 1.084-0.1426s-2.8571-2.628-5.8906-3.2832c-2.2636-0.48891-4.3482-0.17002-5.4316 0.078125-0.000637-0.080285-0.0141-0.16053-0.04297-0.24023l-0.46875-1.2969c-0.127-0.3522-0.503-0.56539-0.91-0.5488zm-0.861 2.2559c-5.4817 0.7328-8.395 6.3222-8.395 6.3222s0.21657 0.026413 0.62305-0.00391c1.1505-1.6912 3.8959-4.9766 8.1152-5.3711l-0.34375-0.94727zm3.1465 2.5156c0.836 1.2321 1.179 2.4697 1.257 3.5996 0.061-0.9607-0.048-2.0381-0.492-3.1523-0.263-0.1358-0.518-0.2843-0.766-0.4473zm-2.5859 0.59766c-0.01247 0.019738-0.03189 0.040689-0.04492 0.060547 0.0025 0.099971 0.0093 0.20483 0.01563 0.31055 0.0086-0.12658 0.01469-0.25567 0.0293-0.37109z" fill-rule="evenodd" fill="#fff"/>
</svg>
